dhis-2/dhis-support/dhis-support-system/src/main/resources/SVGs/rdt_result_neg_positive.svg

<?xml version="1.0" encoding="UTF-8" standalone="no"?>
<!-- Created with Inkscape (http://www.inkscape.org/) -->
<svg id="svg8" xmlns:rdf="http://www.w3.org/1999/02/22-rdf-syntax-ns#" xmlns="http://www.w3.org/2000/svg" xmlns:osb="http://www.openswatchbook.org/uri/2009/osb" height="48" width="48" version="1.1" enable-background="new" xmlns:cc="http://creativecommons.org/ns#" viewBox="0 0 12.7 12.7" xmlns:dc="http://purl.org/dc/elements/1.1/">
 <title id="title4753">UIO-icon</title>
 <metadata id="metadata5">
  <rdf:RDF>
   <cc:Work rdf:about="">
    <dc:format>image/svg+xml</dc:format>
    <dc:type rdf:resource="http://purl.org/dc/dcmitype/StillImage"/>
    <dc:title>UIO-icon</dc:title>
    <dc:creator>
     <cc:Agent>
      <dc:title>Joaquín Urbano</dc:title>
     </cc:Agent>
    </dc:creator>
    <dc:rights>
     <cc:Agent>
      <dc:title>GPL</dc:title>
     </cc:Agent>
    </dc:rights>
   </cc:Work>
  </rdf:RDF>
 </metadata>
 <g id="layer1" transform="translate(0,-284.3)" fill="#333">
  <path id="text9299" d="m10.65 17.803v0.001953c-0.35643 0-0.64456 0.11719-0.86328 0.35352-0.21872 0.23474-0.32812 0.56492-0.32812 0.99023 0 0.40204 0.10861 0.71874 0.32617 0.95117 0.21756 0.23155 0.49607 0.34766 0.83398 0.34766 0.27311 0 0.49677-0.068249 0.67383-0.20312 0.17821-0.13567 0.30643-0.3422 0.38281-0.62109l-0.49805-0.1582c-0.042818 0.187-0.11452 0.32322-0.21289 0.41016-0.098367 0.086733-0.21501 0.13086-0.35156 0.13086-0.18516 0-0.33545-0.06742-0.45117-0.20508-0.11573-0.13686-0.17383-0.3685-0.17383-0.69141 0-0.30436 0.058898-0.52417 0.17578-0.66016 0.11804-0.13567 0.27035-0.20312 0.45898-0.20312 0.13656 0 0.25277 0.038484 0.34766 0.11328 0.096051 0.076789 0.15937 0.18237 0.18945 0.31445l0.50781-0.12305c-0.057-0.206-0.143-0.363-0.259-0.472-0.194-0.185-0.446-0.277-0.758-0.277zm15.918 0.001953c-0.1354 0-0.24878 0.022947-0.33789 0.072266-0.087951 0.047743-0.14808 0.11072-0.18164 0.1875-0.032 0.076-0.048 0.192-0.048 0.347v0.14062h-0.271v0.385h0.271v1.4668h0.48828v-1.467h0.364v-0.385h-0.364v-0.131c0-0.094292 0.014808-0.15723 0.044922-0.18945 0.031272-0.031824 0.081748-0.050781 0.15234-0.050781 0.071746 0 0.14707 0.007463 0.22461 0.027344l0.066406-0.3418c-0.13308-0.042172-0.26933-0.0625-0.4082-0.0625zm-10.564 0.042969v2.5547h0.51367v-0.96289h0.33594c0.2326 0 0.41053-0.011308 0.5332-0.035156 0.090262-0.01988 0.17883-0.060618 0.26562-0.12109 0.087951-0.06127 0.16009-0.14688 0.2168-0.25391 0.056707-0.10702 0.083984-0.23777 0.083984-0.39453 0-0.2033-0.048114-0.3681-0.14648-0.49609-0.098367-0.12891-0.22138-0.21416-0.36719-0.25195-0.094894-0.023887-0.29887-0.039062-0.61133-0.039062zm7.5684 0v2.5547h0.51367v-0.96289h0.33398c0.2326 0 0.41053-0.011308 0.5332-0.035156 0.090262-0.01988 0.17883-0.060618 0.26562-0.12109 0.087951-0.06127 0.16009-0.14688 0.2168-0.25391 0.056707-0.10702 0.085938-0.23777 0.085938-0.39453 0-0.2033-0.050067-0.3681-0.14844-0.49609-0.098367-0.12891-0.21942-0.21416-0.36523-0.25195-0.094894-0.023887-0.29887-0.039062-0.61133-0.039062zm-7.0547 0.43164h0.25c0.18516 0 0.30781 0.009579 0.36914 0.021484 0.08332 0.015912 0.15264 0.052809 0.20703 0.11328 0.054392 0.060076 0.080078 0.13542 0.080078 0.22852 0 0.075594-0.019269 0.14192-0.058594 0.19922-0.038195 0.056893-0.091876 0.099899-0.16016 0.12695-0.068281 0.027855-0.20374 0.039062-0.40625 0.039062h-0.28125zm7.5684 0h0.24805c0.18516 0 0.30781 0.009579 0.36914 0.021484 0.08332 0.015912 0.15264 0.052809 0.20703 0.11328 0.054392 0.060076 0.082031 0.13542 0.082031 0.22852 0 0.075594-0.021222 0.14192-0.060547 0.19922-0.038195 0.056893-0.089926 0.099899-0.1582 0.12695-0.068277 0.027855-0.20373 0.039062-0.40625 0.039062h-0.28125zm-5.9473 0.27344 0.74414 1.8496h0.43945l0.73242-1.8496h-0.50195l-0.35156 0.94336c-0.01854 0.05212-0.034572 0.10529-0.050781 0.1582-0.006923 0.023887-0.024168 0.078236-0.050781 0.1582l-0.10156-0.31641-0.3457-0.94336zm-9.8958 3.088c-2.3504 0-4.2422 1.891-4.2422 4.242v0.070312c0 2.3504 1.8918 4.2441 4.2422 4.2441h31.516c2.35 0 4.242-1.893 4.242-4.244v-0.07c0-2.351-1.892-4.242-4.242-4.242zm31.539 2.113c1.1887 1.2e-7 2.1523 0.96364 2.1523 2.1523-1.2e-7 1.1887-0.96364 2.1523-2.1523 2.1523-1.1887-1.2e-7 -2.1523-0.96364-2.1523-2.1523 1.2e-7 -1.1887 0.96364-2.1523 2.1523-2.1523zm-31.234 0.271h1.8242v3.592h-1.8241c-0.9947 0-1.7969-0.80218-1.7969-1.7969 0-0.9947 0.80218-1.7949 1.7969-1.7949zm2.3379 0h17.677c0.9947 0 1.7969 0.80022 1.7969 1.7949 0 0.9947-0.80218 1.7969-1.7969 1.7969h-17.677zm23.177 0.518c0.75748-0.00059429 1.3717 0.61361 1.3711 1.3711-0.0004851 0.75672-0.61438 1.3697-1.3711 1.3691-0.75595-0.00048469-1.3687-0.61319-1.3691-1.3691-0.00059361-0.75672 0.61242-1.3706 1.3691-1.3711z" transform="matrix(.26458 0 0 .26458 0 284.3)"/>
 </g>
</svg>

<svg width="48" height="48" viewBox="0 0 48 48" fill="none" xmlns="http://www.w3.org/2000/svg">
<path d="M10.6498 17.8027V17.8047C10.2934 17.8047 10.0053 17.9218 9.78658 18.1582C9.56786 18.3929 9.45846 18.7231 9.45846 19.1484C9.45846 19.5504 9.56707 19.8671 9.78463 20.0995C10.0022 20.3311 10.2807 20.4472 10.6186 20.4472C10.8917 20.4472 11.1154 20.379 11.2924 20.2441C11.4706 20.1084 11.5988 19.9019 11.6752 19.623L11.1772 19.4648C11.1344 19.6518 11.0627 19.788 10.9643 19.875C10.8659 19.9617 10.7493 20.0058 10.6127 20.0058C10.4276 20.0058 10.2773 19.9384 10.1616 19.8007C10.0458 19.6639 9.98775 19.4322 9.98775 19.1093C9.98775 18.805 10.0466 18.5852 10.1635 18.4492C10.2816 18.3135 10.4339 18.2461 10.6225 18.2461C10.7591 18.2461 10.8753 18.2846 10.9702 18.3594C11.0662 18.4361 11.1295 18.5417 11.1596 18.6738L11.6674 18.5507C11.6104 18.3447 11.5244 18.1878 11.4084 18.0788C11.2144 17.8938 10.9624 17.8018 10.6504 17.8018L10.6498 17.8027ZM26.5677 17.8047C26.4323 17.8047 26.3189 17.8276 26.2298 17.8769C26.1418 17.9247 26.0817 17.9876 26.0481 18.0644C26.0161 18.1404 26.0001 18.2564 26.0001 18.4114V18.552H25.7291V18.937H26.0001V20.4038H26.4884V18.9368H26.8524V18.5518H26.4884V18.4208C26.4884 18.3265 26.5032 18.2636 26.5333 18.2314C26.5646 18.1996 26.6151 18.1806 26.6857 18.1806C26.7574 18.1806 26.8327 18.1881 26.9103 18.208L26.9767 17.8662C26.8436 17.824 26.7073 17.8037 26.5685 17.8037L26.5677 17.8047ZM16.0038 17.8476V20.4023H16.5174V19.4394H16.8534C17.086 19.4394 17.2639 19.4281 17.3866 19.4043C17.4768 19.3844 17.5654 19.3436 17.6522 19.2832C17.7401 19.2219 17.8123 19.1363 17.869 19.0293C17.9257 18.9222 17.953 18.7915 17.953 18.6347C17.953 18.4314 17.9049 18.2666 17.8065 18.1387C17.7081 18.0097 17.5851 17.9245 17.4393 17.8867C17.3444 17.8628 17.1404 17.8476 16.828 17.8476H16.0038ZM23.5721 17.8476V20.4023H24.0858V19.4394H24.4197C24.6523 19.4394 24.8303 19.4281 24.9529 19.4043C25.0432 19.3844 25.1317 19.3436 25.2185 19.2832C25.3065 19.2219 25.3786 19.1363 25.4353 19.0293C25.492 18.9222 25.5213 18.7915 25.5213 18.6347C25.5213 18.4314 25.4712 18.2666 25.3728 18.1387C25.2745 18.0097 25.1534 17.9245 25.0076 17.8867C24.9127 17.8628 24.7087 17.8476 24.3963 17.8476H23.5721ZM16.5175 18.2793H16.7675C16.9526 18.2793 17.0753 18.2888 17.1366 18.3007C17.2199 18.3167 17.2892 18.3536 17.3436 18.414C17.398 18.4741 17.4237 18.5494 17.4237 18.6425C17.4237 18.7181 17.4044 18.7845 17.3651 18.8418C17.3269 18.8986 17.2732 18.9417 17.205 18.9687C17.1367 18.9966 17.0012 19.0078 16.7987 19.0078H16.5175V18.2793ZM24.0858 18.2793H24.3338C24.519 18.2793 24.6416 18.2888 24.703 18.3007C24.7863 18.3167 24.8556 18.3536 24.91 18.414C24.9644 18.4741 24.992 18.5494 24.992 18.6425C24.992 18.7181 24.9708 18.7845 24.9315 18.8418C24.8933 18.8986 24.8415 18.9417 24.7733 18.9687C24.705 18.9966 24.5695 19.0078 24.367 19.0078H24.0858V18.2793ZM18.1386 18.5527L18.8827 20.4023H19.3221L20.0545 18.5527H19.5526L19.201 19.496C19.1825 19.5482 19.1665 19.6013 19.1503 19.6542C19.1433 19.6781 19.1261 19.7325 19.0995 19.8124L18.9979 19.496L18.6522 18.5527H18.1386ZM8.24288 21.6407C5.89251 21.6407 4.00073 23.5316 4.00073 25.8826V25.9529C4.00073 28.3033 5.89251 30.197 8.24288 30.197H39.7585C42.1085 30.197 44.0004 28.304 44.0004 25.953V25.883C44.0004 23.532 42.1085 21.6411 39.7585 21.6411L8.24288 21.6407ZM39.7815 23.7536C40.9702 23.7536 41.9338 24.7173 41.9338 25.9059C41.9338 27.0946 40.9701 28.0582 39.7815 28.0582C38.5928 28.0582 37.6292 27.0946 37.6292 25.9059C37.6292 24.7172 38.5928 23.7536 39.7815 23.7536ZM8.54788 24.0246H10.3721V27.6166H8.54798C7.55329 27.6166 6.7511 26.8144 6.7511 25.8197C6.7511 24.825 7.55327 24.0248 8.54798 24.0248L8.54788 24.0246ZM10.8857 24.0246H28.5625C29.5572 24.0246 30.3594 24.8248 30.3594 25.8195C30.3594 26.8142 29.5572 27.6164 28.5625 27.6164H10.8857V24.0246ZM34.0625 24.5426C34.8199 24.542 35.4341 25.1562 35.4335 25.9137C35.4331 26.6704 34.8192 27.2834 34.0625 27.2828C33.3065 27.2823 32.6938 26.6696 32.6934 25.9137C32.6928 25.157 33.3058 24.5431 34.0625 24.5426Z" fill="#333333"/>
</svg>
